X: 1132
T: My Mind Will Never Be "Aisy"
R:slip jig
N:"Collected by F. O'Neill"
B:O'Neill's 1132
Z:Transcribed by Michael Hogan
M:9/8
L:1/8
K:Em
(g/f/) | edB BAB G2A | Bdd deB d2 (g/f/) | edB BAB G2A | Bee ef^d e2 :|
z | def gaf g2d | Bdd deB d3 | efg agf edc | B2e ef^d e3 |
def gaf g2d | Bdd deB d2 (f/g/) | agf gfe edB | B2e ef^d e2 ||


